X:348
T:If I had Maggie in the Wood
C:Traditional Irish
S:Colin Hume's website,  colinhume.com  - chords can also be printed below the stave.
Q:1/2=120
M:2/2
L:1/4
K:G
P:A
|:D | "G"GD "/"GA | "Em"Be "/"ef/e/ | "G"dB "Am"AG/A/ | "G"BA "D7"AB/A/ |\
"G"GD "/"GA | "Em"Be "/"ef/e/ | "G"dB "D7"AB/A/ | "G"G2 "/"G :|
P:B
|:d | "C"gf "/"ed | "Em"Be "/"ef/e/ | "G"dB "Am"AG/A/ | "G"BA "D7"A3/d/ |\
"C"gf ed | "Em"Be "/"ef/e/ | "G"dB "D7"AB/A/ | "G"G2 G :|

